X:2219
L:1/8
Q:3/8=100
M:6/8
K:D
 dAd dAd | dAd T^f3 | eBe eBe | eBe (dc/B/A) | dAd dAd | dAd T^f3 | B^cB edc | d3 D3 :: ded fga | 
 dfd T^f3 | BcB ded | efd cBA | ded fga | ded T^f3 | BcB edc | d3 D3 :|

